X:85
T: ES SULL SECH HALT'G KEENER
N: E0693
O: Europa, Mitteleuropa, Deutschland, Thueringen
R: Liebes - Lied, Leid, Klage
M: 3/4
L: 1/8
K: G
D2 | G2G2A2 | B2B2
dc | B2B2A2 | G2G2
D2 | G2G2A2 | B2B2
dc | B2B2A2 | G2G2
d2 | g2g2f2 | e2e2
d2 | c2c2B2 | A4
dc | c2c2A2 | G4
dc | B2B2A2 | G4

@@@ Tune index: 4398
